resources/haticons/SVG/superscript.svg

<!-- Generated by IcoMoon.io -->
<svg version="1.1" xmlns="http://www.w3.org/2000/svg" width="24" height="24" viewBox="0 0 24 24">
<title>superscript</title>
<path d="M18 4.828v1.172h3v1.5h-4.5v-3.422l3-1.406v-1.172h-3v-1.5h4.5v3.422zM15.844 6h-3.188l-4.406 4.406-4.406-4.406h-3.188l6 6-6 6h3.188l4.406-4.406 4.406 4.406h3.188l-6-6z"></path>
</svg>

<svg xmlns="http://www.w3.org/2000/svg" width="24" height="24"><path d="M18 4.828V6h3v1.5h-4.5V4.078l3-1.406V1.5h-3V0H21v3.422zM15.844 6h-3.188L8.25 10.406 3.844 6H.656l6 6-6 6h3.188l4.406-4.406L12.656 18h3.188l-6-6z"/></svg>
